X:1
T:Title
%%score ( 1 2 ) { 3 | 4 }
L:1/8
Q:1/4=110
M:4/4
K:Eb
V:1 treble nm="Grand Piano, Staff"
V:2 treble 
V:3 treble nm="Choir Pad, Holy Trinity, CM"
V:4 bass 
V:1
 [Ge]2 [Gd]2 [Gc]2 [_GB]2 | [_G=A]2 [Gc]2- [Gc][Gc] [FB]2 | [FA]2 [EG]2 [_DG]2 [CG]2 | %3
w: By~Joseph~Barnby,~1861 * * *|||
 [CF]2 E4 D2 | [B,G]2 [DG]2 [CA]2 [B,B]2 | [EB]2 [D=B]2- [DB][DB] [Cc]2 | %6
w: |||
 [CF]2 [B,G]2 [EB]2 [DG]2- | [DG][DF] E6- | E2 z2 z4 |] %9
w: |||
V:2
 x8 | x8 | x8 | z2 B,6 | x8 | x8 | x8 | x8 | x8 |] %9
V:3
 B,2 B,2 E2 C2 | C2[K:bass] =A,2- A,A, B,2 | B,2 B,2 B,2 B,2 | A,2 G,4 F,2 | E,2 B,2 A,2 G,2 | %5
 G,2 F,2- F,F, E,2 | E,2 E,2 G,2 B,2- | B,A, G,6- | G,2 z2 z4 |] %9
V:4
 E,2 E,2 E,2 E,2 | E,2 E,2- E,E, D,2 | D,2 E,2 E,2 A,,2 | A,,2 B,,6 | z2 E,2 E,2 E,2 | %5
 z2 G,,2- G,,G,, A,,2 | =A,,2 B,,2 B,,2 B,,2- | B,,B,, E,6- | E,2 z2 z4 |] %9

